!!!OTL: WER WOLLTE SICH MIT GRILLEN PLAGEN
!!!ARE: Europa, Mitteleuropa, Deutschland, Pommern; Brandenburg; Sachsen
!!!SCT: B0290A
!!!YEM: Copyright 1995, estate of Helmut Schaffrath.
**kern
*ICvox
*Ivox
*M4/4
*k[b-]
*F:
{4c
=1
4.f
8a
8g
8f
8g
8a
=2
4f
8.cc
16b-
4a
8r}
{8f
=3
4.g
8a
8b-
8a
8b-
8cc
=4
4b-
4a
4r}
{8f
8a
=5
4.cc
8a
8cc
8a
8cc
8ff
=6
8ee
8dd
4cc
4r}
{4a
=7
4.g
8a
8b-
8dd
8cc
8e
=8
4g
4f
4r}
==
!!!AGN: Stimmungs - Lied, Freude
!!!ONB: ESAC (Essen Associative Code) Database: BOEHME
!!!AMT: simple quadruple
!!!AIN: vox
!!!EED: Helmut Schaffrath
!!!EEV: 1.0
*-
